X: 1264
T: O Me! O My! (A Toast)
%R: song, c
B: "The Golden Book of Favorite Songs", 1923
S: https://ia802507.us.archive.org/33/items/goldenbookoffavo00beat_0/goldenbookoffavo00beat_0.pdf
Z: 2020 John Chambers <jc:trillian.mit.edu>
N: The || between the sections wasn't in the book, but some ABC 2 tools (especially abcm2ps)
N: gave a fatal error without it, even with the "%%continueall" instruction .
M: 2/4
L: 1/16
K: Ab
%%continueall
% - - - - - - - - - - - - - - - - - - - - - - - - - - - - -
E2 | c6 A2 | E6 A2 | F2F2 F2F2 | B6 ||
w: O me! O My! We'll get there by and by.
w: O my! O Me! We're hap-py as can be.
A2 | GGGG G2G2 | G2 G4 F2 | E2E2 F2G2 | A6 |]
w: If a-ny-bo-dy likes the speak-er, It's I, I, I, I, I.
w: If a-ny-bo-dy likes the speak-er, It's me, me, me, me, me.
% - - - - - - - - - - - - - - - - - - - - - - - - - - - - -
%%center Substitute any name for the words "the speaker".

%%sep 1 1 500
%%sep 1 1 500

